img/pic-1.svg

<svg width="100" height="100" viewBox="0 0 100 100" fill="none" xmlns="http://www.w3.org/2000/svg">
<path d="M50.0007 98.4832C76.7781 98.4832 98.4855 76.7758 98.4855 49.9984C98.4855 23.221 76.7781 1.51361 50.0007 1.51361C23.2233 1.51361 1.51593 23.221 1.51593 49.9984C1.51593 76.7758 23.2233 98.4832 50.0007 98.4832Z" fill="#F2EAE2"/>
<path d="M70.4066 65.1709C70.4066 65.1709 55.6304 77.8759 36.4766 71.3539" stroke="#082C4E" stroke-width="1.5" stroke-miterlimit="10" stroke-linecap="round" stroke-linejoin="round"/>
<path d="M44.9807 42.0664L37.4963 58.313L45.9561 61.5096" stroke="#082C4E" stroke-width="1.5" stroke-miterlimit="10" stroke-linecap="round" stroke-linejoin="round"/>
<path d="M35.3032 49.6646C41.887 48.8562 46.5689 42.8637 45.7604 36.2798C44.952 29.696 38.9595 25.0139 32.3757 25.8223C25.7918 26.6307 21.1099 32.6235 21.9183 39.2071C22.7267 45.791 28.7193 50.473 35.3032 49.6646Z" stroke="#082C4E" stroke-width="1.5" stroke-miterlimit="10" stroke-linecap="round" stroke-linejoin="round"/>
<path d="M65.5212 49.3847C72.105 48.5763 76.7871 42.5838 75.9787 35.9999C75.1703 29.4161 69.1775 24.7343 62.5937 25.5427C56.0098 26.3511 51.3278 32.3436 52.1362 38.9274C52.9446 45.5113 58.9373 50.1931 65.5212 49.3847Z" stroke="#082C4E" stroke-width="1.5" stroke-miterlimit="10" stroke-linecap="round" stroke-linejoin="round"/>
<path d="M46.8239 38.3657L52.0386 38.1287" stroke="#082C4E" stroke-width="1.5" stroke-miterlimit="10" stroke-linecap="round" stroke-linejoin="round"/>
</svg>

<svg width="100" height="100" fill="none" xmlns="http://www.w3.org/2000/svg"><path d="M50 98.483c26.778 0 48.486-21.707 48.486-48.485C98.486 23.221 76.778 1.514 50 1.514c-26.778 0-48.485 21.707-48.485 48.484 0 26.778 21.707 48.485 48.485 48.485Z" fill="#F2EAE2"/><path d="M70.407 65.17s-14.777 12.706-33.93 6.184M44.98 42.066l-7.484 16.247 8.46 3.197" stroke="#082C4E" stroke-width="1.5" stroke-miterlimit="10" stroke-linecap="round" stroke-linejoin="round"/><path d="M35.303 49.665c6.584-.809 11.266-6.801 10.457-13.385-.808-6.584-6.8-11.266-13.384-10.458-6.584.809-11.266 6.802-10.458 13.385.809 6.584 6.801 11.266 13.385 10.458ZM65.521 49.385C72.105 48.576 76.787 42.584 75.98 36c-.809-6.584-6.802-11.266-13.385-10.457-6.584.808-11.266 6.8-10.458 13.384.809 6.584 6.801 11.266 13.385 10.458ZM46.824 38.366l5.215-.237" stroke="#082C4E" stroke-width="1.5" stroke-miterlimit="10" stroke-linecap="round" stroke-linejoin="round"/></svg>
